src/assets/direction-icon.svg

<svg width="28" height="81" viewBox="0 0 28 81" fill="none" xmlns="http://www.w3.org/2000/svg">
<circle cx="15.5001" cy="11.8902" r="11.8902" fill="#E9ECEF"/>
<g filter="url(#filter0_d_391_2886)">
<circle cx="15.7642" cy="11.626" r="7.92683" fill="#212529"/>
</g>
<path d="M15.7643 13.2119C16.1847 13.2119 16.588 13.0449 16.8853 12.7476C17.1826 12.4503 17.3496 12.047 17.3496 11.6266C17.3496 11.2061 17.1826 10.8029 16.8853 10.5055C16.588 10.2082 16.1847 10.0412 15.7643 10.0412C15.3438 10.0412 14.9406 10.2082 14.6432 10.5055C14.3459 10.8029 14.1789 11.2061 14.1789 11.6266C14.1789 12.047 14.3459 12.4503 14.6432 12.7476C14.9406 13.0449 15.3438 13.2119 15.7643 13.2119ZM16.0285 7.66315C16.0285 7.59308 16.0007 7.52587 15.9511 7.47632C15.9015 7.42676 15.8343 7.39893 15.7643 7.39893C15.6942 7.39893 15.627 7.42676 15.5774 7.47632C15.5279 7.52587 15.5 7.59308 15.5 7.66315V8.46641C14.7529 8.52889 14.0521 8.85406 13.5219 9.38421C12.9918 9.91436 12.6666 10.6152 12.6041 11.3623H11.8008C11.7308 11.3623 11.6636 11.3902 11.614 11.4397C11.5645 11.4893 11.5366 11.5565 11.5366 11.6266C11.5366 11.6966 11.5645 11.7639 11.614 11.8134C11.6636 11.863 11.7308 11.8908 11.8008 11.8908H12.6041C12.6666 12.6379 12.9918 13.3388 13.5219 13.8689C14.0521 14.3991 14.7529 14.7242 15.5 14.7867V15.59C15.5 15.6601 15.5279 15.7273 15.5774 15.7768C15.627 15.8264 15.6942 15.8542 15.7643 15.8542C15.8343 15.8542 15.9015 15.8264 15.9511 15.7768C16.0007 15.7273 16.0285 15.6601 16.0285 15.59V14.7867C16.7756 14.7241 17.4764 14.3989 18.0065 13.8688C18.5366 13.3387 18.8618 12.6379 18.9244 11.8908H19.7277C19.7978 11.8908 19.865 11.863 19.9145 11.8134C19.9641 11.7639 19.9919 11.6966 19.9919 11.6266C19.9919 11.5565 19.9641 11.4893 19.9145 11.4397C19.865 11.3902 19.7978 11.3623 19.7277 11.3623H18.9244C18.8619 10.6152 18.5368 9.91436 18.0066 9.38421C17.4765 8.85406 16.7756 8.52889 16.0285 8.46641V7.66315ZM15.7643 14.2688C15.0635 14.2688 14.3914 13.9905 13.8959 13.4949C13.4004 12.9994 13.122 12.3273 13.122 11.6266C13.122 10.9258 13.4004 10.2537 13.8959 9.7582C14.3914 9.26267 15.0635 8.98429 15.7643 8.98429C16.465 8.98429 17.1371 9.26267 17.6326 9.7582C18.1282 10.2537 18.4065 10.9258 18.4065 11.6266C18.4065 12.3273 18.1282 12.9994 17.6326 13.4949C17.1371 13.9905 16.465 14.2688 15.7643 14.2688Z" fill="#07AFF0"/>
<rect x="15.2359" y="24.0445" width="0.528455" height="29.5935" stroke="#212529" stroke-width="0.528455" stroke-dasharray="2.64 2.64"/>
<circle cx="15.5001" cy="65.7926" r="11.8902" fill="#E9ECEF"/>
<g filter="url(#filter1_d_391_2886)">
<circle cx="15.7642" cy="65.5289" r="7.92683" fill="#212529"/>
</g>
<mask id="mask0_391_2886" style="mask-type:alpha" maskUnits="userSpaceOnUse" x="10" y="60" width="12" height="11">
<rect x="10.48" y="60.2432" width="10.5691" height="10.5691" fill="#D9D9D9"/>
</mask>
<g mask="url(#mask0_391_2886)">
<path d="M15.7647 65.5273C16.0069 65.5273 16.2143 65.4411 16.3868 65.2686C16.5593 65.0961 16.6455 64.8888 16.6455 64.6466C16.6455 64.4044 16.5593 64.197 16.3868 64.0245C16.2143 63.8521 16.0069 63.7658 15.7647 63.7658C15.5225 63.7658 15.3152 63.8521 15.1427 64.0245C14.9702 64.197 14.884 64.4044 14.884 64.6466C14.884 64.8888 14.9702 65.0961 15.1427 65.2686C15.3152 65.4411 15.5225 65.5273 15.7647 65.5273ZM15.7647 69.9311C14.583 68.9256 13.7005 67.9916 13.117 67.1292C12.5335 66.2668 12.2417 65.4686 12.2417 64.7346C12.2417 63.6337 12.5958 62.7566 13.3041 62.1034C14.0124 61.4501 14.8326 61.1235 15.7647 61.1235C16.6969 61.1235 17.5171 61.4501 18.2254 62.1034C18.9336 62.7566 19.2878 63.6337 19.2878 64.7346C19.2878 65.4686 18.996 66.2668 18.4125 67.1292C17.829 67.9916 16.9464 68.9256 15.7647 69.9311Z" fill="#07AFF0"/>
</g>
<defs>
<filter id="filter0_d_391_2886" x="0.439028" y="0.528487" width="26.4226" height="26.4226" filterUnits="userSpaceOnUse" color-interpolation-filters="sRGB">
<feFlood flood-opacity="0" result="BackgroundImageFix"/>
<feColorMatrix in="SourceAlpha" type="matrix" values="0 0 0 0 0 0 0 0 0 0 0 0 0 0 0 0 0 0 127 0" result="hardAlpha"/>
<feOffset dx="-2.11382" dy="2.11382"/>
<feGaussianBlur stdDeviation="2.64228"/>
<feComposite in2="hardAlpha" operator="out"/>
<feColorMatrix type="matrix" values="0 0 0 0 0 0 0 0 0 0 0 0 0 0 0 0 0 0 0.25 0"/>
<feBlend mode="normal" in2="BackgroundImageFix" result="effect1_dropShadow_391_2886"/>
<feBlend mode="normal" in="SourceGraphic" in2="effect1_dropShadow_391_2886" result="shape"/>
</filter>
<filter id="filter1_d_391_2886" x="0.439028" y="54.4313" width="26.4226" height="26.4226" filterUnits="userSpaceOnUse" color-interpolation-filters="sRGB">
<feFlood flood-opacity="0" result="BackgroundImageFix"/>
<feColorMatrix in="SourceAlpha" type="matrix" values="0 0 0 0 0 0 0 0 0 0 0 0 0 0 0 0 0 0 127 0" result="hardAlpha"/>
<feOffset dx="-2.11382" dy="2.11382"/>
<feGaussianBlur stdDeviation="2.64228"/>
<feComposite in2="hardAlpha" operator="out"/>
<feColorMatrix type="matrix" values="0 0 0 0 0 0 0 0 0 0 0 0 0 0 0 0 0 0 0.25 0"/>
<feBlend mode="normal" in2="BackgroundImageFix" result="effect1_dropShadow_391_2886"/>
<feBlend mode="normal" in="SourceGraphic" in2="effect1_dropShadow_391_2886" result="shape"/>
</filter>
</defs>
</svg>

<svg width="28" height="81" fill="none" xmlns="http://www.w3.org/2000/svg"><circle cx="15.5" cy="11.89" r="11.89" fill="#E9ECEF"/><g filter="url(#filter0_d_391_2886)"><circle cx="15.764" cy="11.626" r="7.927" fill="#212529"/></g><path d="M15.764 13.212a1.585 1.585 0 100-3.17 1.585 1.585 0 000 3.17zm.265-5.549a.264.264 0 10-.529 0v.803a3.171 3.171 0 00-2.896 2.896h-.803a.265.265 0 000 .529h.803a3.172 3.172 0 002.896 2.896v.803a.264.264 0 00.529 0v-.803a3.172 3.172 0 002.895-2.896h.804a.264.264 0 100-.529h-.804a3.171 3.171 0 00-2.895-2.896v-.803zm-.265 6.606a2.642 2.642 0 110-5.284 2.642 2.642 0 010 5.284z" fill="#07AFF0"/><path stroke="#212529" stroke-width=".528" stroke-dasharray="2.64 2.64" d="M15.236 24.044h.528v29.593h-.528z"/><circle cx="15.5" cy="65.793" r="11.89" fill="#E9ECEF"/><g filter="url(#filter1_d_391_2886)"><circle cx="15.764" cy="65.529" r="7.927" fill="#212529"/></g><mask id="a" style="mask-type:alpha" maskUnits="userSpaceOnUse" x="10" y="60" width="12" height="11"><path fill="#D9D9D9" d="M10.48 60.243h10.569v10.569H10.48z"/></mask><g mask="url(#a)"><path d="M15.765 65.527c.242 0 .45-.086.622-.258a.848.848 0 00.258-.622.848.848 0 00-.258-.623.849.849 0 00-.622-.258.848.848 0 00-.622.259.848.848 0 00-.259.622c0 .242.086.45.259.622.172.172.38.258.622.258zm0 4.404c-1.182-1.005-2.065-1.94-2.648-2.802-.584-.862-.875-1.66-.875-2.394 0-1.101.354-1.978 1.062-2.632.708-.653 1.529-.98 2.46-.98.933 0 1.753.327 2.461.98.709.654 1.063 1.53 1.063 2.632 0 .734-.292 1.532-.875 2.394-.584.863-1.467 1.797-2.648 2.802z" fill="#07AFF0"/></g><defs><filter id="filter0_d_391_2886" x=".439" y=".528" width="26.423" height="26.423" filterUnits="userSpaceOnUse" color-interpolation-filters="sRGB"><feFlood flood-opacity="0" result="BackgroundImageFix"/><feColorMatrix in="SourceAlpha" values="0 0 0 0 0 0 0 0 0 0 0 0 0 0 0 0 0 0 127 0" result="hardAlpha"/><feOffset dx="-2.114" dy="2.114"/><feGaussianBlur stdDeviation="2.642"/><feComposite in2="hardAlpha" operator="out"/><feColorMatrix values="0 0 0 0 0 0 0 0 0 0 0 0 0 0 0 0 0 0 0.25 0"/><feBlend in2="BackgroundImageFix" result="effect1_dropShadow_391_2886"/><feBlend in="SourceGraphic" in2="effect1_dropShadow_391_2886" result="shape"/></filter><filter id="filter1_d_391_2886" x=".439" y="54.431" width="26.423" height="26.423" filterUnits="userSpaceOnUse" color-interpolation-filters="sRGB"><feFlood flood-opacity="0" result="BackgroundImageFix"/><feColorMatrix in="SourceAlpha" values="0 0 0 0 0 0 0 0 0 0 0 0 0 0 0 0 0 0 127 0" result="hardAlpha"/><feOffset dx="-2.114" dy="2.114"/><feGaussianBlur stdDeviation="2.642"/><feComposite in2="hardAlpha" operator="out"/><feColorMatrix values="0 0 0 0 0 0 0 0 0 0 0 0 0 0 0 0 0 0 0.25 0"/><feBlend in2="BackgroundImageFix" result="effect1_dropShadow_391_2886"/><feBlend in="SourceGraphic" in2="effect1_dropShadow_391_2886" result="shape"/></filter></defs></svg>
